Sweet-Rainbow/icons/wps-office-wpsmain.svg

<?xml version="1.0" encoding="UTF-8" standalone="no"?>
<!-- Generator: Gravit.io -->

<svg
   xmlns:dc="http://purl.org/dc/elements/1.1/"
   xmlns:cc="http://creativecommons.org/ns#"
   xmlns:rdf="http://www.w3.org/1999/02/22-rdf-syntax-ns#"
   xmlns:svg="http://www.w3.org/2000/svg"
   xmlns="http://www.w3.org/2000/svg"
   xmlns:sodipodi="http://sodipodi.sourceforge.net/DTD/sodipodi-0.dtd"
   xmlns:inkscape="http://www.inkscape.org/namespaces/inkscape"
   style="isolation:isolate"
   viewBox="0 0 36 36"
   width="48"
   height="48"
   version="1.1"
   id="svg9"
   sodipodi:docname="wps-office-wpsmain.svg"
   inkscape:version="0.92.4 (5da689c313, 2019-01-14)">
  <metadata
     id="metadata15">
    <rdf:RDF>
      <cc:Work
         rdf:about="">
        <dc:format>image/svg+xml</dc:format>
        <dc:type
           rdf:resource="http://purl.org/dc/dcmitype/StillImage" />
        <dc:title></dc:title>
      </cc:Work>
    </rdf:RDF>
  </metadata>
  <defs
     id="defs13" />
  <sodipodi:namedview
     pagecolor="#ffffff"
     bordercolor="#666666"
     borderopacity="1"
     objecttolerance="10"
     gridtolerance="10"
     guidetolerance="10"
     inkscape:pageopacity="0"
     inkscape:pageshadow="2"
     inkscape:window-width="640"
     inkscape:window-height="480"
     id="namedview11"
     showgrid="false"
     inkscape:zoom="29.365243"
     inkscape:cx="25.325443"
     inkscape:cy="32"
     inkscape:current-layer="svg9"
     units="px" />
  <linearGradient
     id="_lgradient_33"
     x1="0"
     y1="0.5"
     x2="0.90748805"
     y2="0.92007786"
     gradientTransform="matrix(42,0,0,42,3,3)"
     gradientUnits="userSpaceOnUse">
    <stop
       offset="0%"
       stop-opacity="1"
       style="stop-color:rgb(0,196,255)"
       id="stop2" />
    <stop
       offset="83.88839793817618%"
       stop-opacity="1"
       style="stop-color:rgb(0,114,255)"
       id="stop4" />
  </linearGradient>
  <g
     id="g826"
     transform="matrix(0.85714286,0,0,0.85714286,-2.5714286,-2.5714286)">
    <path
       id="path7"
       d="m 35,7 v 0 0 h 3 v 0 c 1.656,0 3,1.344 3,3 v 3 0 c 0,1.104 0.896,2 2,2 v 0 c 1.104,0 2,-0.896 2,-2 V 13 8 C 45,5.24 42.76,3 40,3 H 38 35 V 3 3 H 8 C 5.24,3 3,5.24 3,8 v 19 0 c 0,1.104 0.896,2 2,2 v 0 c 1.104,0 2,-0.896 2,-2 V 27 10 C 7,8.344 8.344,7 10,7 Z M 15.071,29.362 24,18.451 32.929,29.362 V 15.915 c 0,-0.473 0.187,-0.928 0.526,-1.259 0.331,-0.339 0.786,-0.527 1.259,-0.527 0.473,0 0.929,0.188 1.259,0.527 0.34,0.331 0.527,0.786 0.527,1.259 v 15.179 c 0,0.125 -0.009,0.25 -0.036,0.366 -0.08,0.366 -0.214,0.714 -0.402,1.027 -0.482,0.848 -1.374,1.375 -2.348,1.384 -0.571,-0.009 -1.134,-0.17 -1.625,-0.474 -0.5,-0.294 -0.946,-0.651 -1.348,-1.071 -0.027,-0.036 -0.062,-0.072 -0.089,-0.098 L 24,24.094 17.348,32.228 c -0.027,0.026 -0.062,0.062 -0.089,0.098 -0.402,0.42 -0.848,0.777 -1.348,1.071 -0.491,0.304 -1.054,0.465 -1.625,0.474 C 13.312,33.862 12.42,33.335 11.937,32.487 11.75,32.174 11.616,31.826 11.536,31.46 11.509,31.344 11.5,31.219 11.5,31.094 V 15.915 c 0,-0.473 0.188,-0.928 0.527,-1.259 0.33,-0.339 0.786,-0.527 1.259,-0.527 0.473,0 0.928,0.188 1.259,0.527 0.339,0.331 0.526,0.786 0.526,1.259 z M 13,41 v 0 c 1.104,0 2,0.896 2,2 v 0 c 0,1.104 -0.896,2 -2,2 v 0 H 8 C 5.24,45 3,42.76 3,40 v -5 0 c 0,-1.104 0.896,-2 2,-2 v 0 c 1.104,0 2,0.896 2,2 v 0 3 c 0,1.656 1.344,3 3,3 z M 41,22 v 0 c 0,-1.104 0.896,-2 2,-2 v 0 c 1.104,0 2,0.896 2,2 v 0 18 c 0,2.76 -2.24,5 -5,5 H 22 v 0 c -1.104,0 -2,-0.896 -2,-2 v 0 c 0,-1.104 0.896,-2 2,-2 v 0 h 16 c 1.656,0 3,-1.344 3,-3 z"
       inkscape:connector-curvature="0"
       style="fill:url(#_lgradient_33);fill-rule:evenodd" />
  </g>
</svg>

<?xml version="1.0" encoding="UTF-8" standalone="no"?><!-- Generator: Gravit.io --><svg xmlns="http://www.w3.org/2000/svg" xmlns:xlink="http://www.w3.org/1999/xlink" style="isolation:isolate" viewBox="0 0 48 48" width="48pt" height="48pt"><linearGradient id="_lgradient_33" x1="0" y1="0.5" x2="0.9074880558539661" y2="0.9200778838291643" gradientTransform="matrix(42,0,0,42,3,3)" gradientUnits="userSpaceOnUse"><stop offset="0%" stop-opacity="1" style="stop-color:rgb(0,196,255)"/><stop offset="83.88839793817618%" stop-opacity="1" style="stop-color:rgb(0,114,255)"/></linearGradient><path d=" M 35 7 L 35 7 L 35 7 L 38 7 L 38 7 C 39.656 7 41 8.344 41 10 L 41 13 L 41 13 C 41 14.104 41.896 15 43 15 L 43 15 C 44.104 15 45 14.104 45 13 L 45 13 L 45 8 C 45 5.24 42.76 3 40 3 L 38 3 L 35 3 L 35 3 L 35 3 L 8 3 C 5.24 3 3 5.24 3 8 L 3 27 L 3 27 C 3 28.104 3.896 29 5 29 L 5 29 C 6.104 29 7 28.104 7 27 L 7 27 L 7 10 C 7 8.344 8.344 7 10 7 L 35 7 L 35 7 Z  M 15.071 29.362 L 24 18.451 L 32.929 29.362 L 32.929 15.915 C 32.929 15.442 33.116 14.987 33.455 14.656 C 33.786 14.317 34.241 14.129 34.714 14.129 C 35.187 14.129 35.643 14.317 35.973 14.656 C 36.313 14.987 36.5 15.442 36.5 15.915 L 36.5 31.094 C 36.5 31.219 36.491 31.344 36.464 31.46 C 36.384 31.826 36.25 32.174 36.062 32.487 C 35.58 33.335 34.688 33.862 33.714 33.871 C 33.143 33.862 32.58 33.701 32.089 33.397 C 31.589 33.103 31.143 32.746 30.741 32.326 C 30.714 32.29 30.679 32.254 30.652 32.228 L 24 24.094 L 17.348 32.228 C 17.321 32.254 17.286 32.29 17.259 32.326 C 16.857 32.746 16.411 33.103 15.911 33.397 C 15.42 33.701 14.857 33.862 14.286 33.871 C 13.312 33.862 12.42 33.335 11.937 32.487 C 11.75 32.174 11.616 31.826 11.536 31.46 C 11.509 31.344 11.5 31.219 11.5 31.094 L 11.5 15.915 C 11.5 15.442 11.688 14.987 12.027 14.656 C 12.357 14.317 12.813 14.129 13.286 14.129 C 13.759 14.129 14.214 14.317 14.545 14.656 C 14.884 14.987 15.071 15.442 15.071 15.915 L 15.071 29.362 L 15.071 29.362 L 15.071 29.362 L 15.071 29.362 Z  M 13 41 L 13 41 C 14.104 41 15 41.896 15 43 L 15 43 C 15 44.104 14.104 45 13 45 L 13 45 L 8 45 C 5.24 45 3 42.76 3 40 L 3 35 L 3 35 C 3 33.896 3.896 33 5 33 L 5 33 C 6.104 33 7 33.896 7 35 L 7 35 L 7 38 C 7 39.656 8.344 41 10 41 L 13 41 L 13 41 L 13 41 L 13 41 Z  M 41 22 L 41 22 C 41 20.896 41.896 20 43 20 L 43 20 C 44.104 20 45 20.896 45 22 L 45 22 L 45 40 C 45 42.76 42.76 45 40 45 L 22 45 L 22 45 C 20.896 45 20 44.104 20 43 L 20 43 C 20 41.896 20.896 41 22 41 L 22 41 L 38 41 C 39.656 41 41 39.656 41 38 L 41 22 Z " fill-rule="evenodd" fill="url(#_lgradient_33)"/></svg>
